X:1
T:The Nonpareil
T:THE  NONPAREIL.
T:A Rag & Two Step.
T:Respectfully dedicated to Miss Mildred Ponder.
T:SCOTT JOPLIN. Composer  of  “Maple  Leaf  Rag,” etc.
T:NOTICE:  Do not play this piece fast. It is never right to play “Ragtime” fast. Author.
T:Public Domain
T:Public Domain
T:Public Domain
T:Public Domain
C:Scott Joplin
Z:Public Domain
%%score { ( 1 3 ) | ( 2 4 ) }
L:1/8
Q:1/4=60
M:2/4
K:Bb
V:1 treble nm="Piano" snm="Pno."
V:3 treble 
V:2 bass 
V:4 bass 
V:1
"^Slow march tempo."!mf!"^r.h." f/=e/f/B/- B/d/_e/f/ | g/^f/g/c/- c/e/=f/g/ | %2
!<(! (c'/=b/c') !>![=E_Bc]!>![_EBc]!<)! |!f! !>![EAc]2 !>![FAef]2 |:!mf! (f/e/d/c/-) (c/d/e/f/) | %5
 [eg]2- ([eg]/A/c/d/) | (c/B/A/B/-) (B/c/d/e/) | f2- (f/b/a/_a/) | (g/e/B/G/-) (G/B/e/g/) | %9
 (f/d/B/F/-) (F/B/c/d/) |!<(! (=e/g/b/c'/-) (c'/c/B/g/)!<)! | [Af]2-!>(! ([Af]/A/c/g/)!>)! | %12
!mf! (f/e/d/c/-) (c/d/e/f/) | [eg]2- ([eg]/A/c/d/) | (c/B/A/B/-) (B/c/d/e/) | f2- (f/d/F/c/) | %16
!<(! (B/G/A/B/-) B/GA/!<)! |!<(! (B/G/A/B/-) (B/b/_g/^c/)!<)! |!f! (d/F/G/[=EB]/-) [EB][_EAc] |1 %19
 [DB]2- [DB]/(F/B/d/) :|2 [DB]2- [DB]/!>(!(B/d/f/)!>)! |:!mf! [GBeg]2 [EGBe]2 | %22
!<(! [DFBd]3 [FBdf]!<)! |!<(! [cec'][=Bd=b]/[cec']/- [cec']/[Aea]/!<)![Fef] | %24
 [dfd'][^c=e^c']/[dfd']/-!>(! [dfd']/[Bdb]/[FBdf]!>)! |!mf! [GB_eg]2 [EGBe]2 | [DFBd]2 [DGBd]2 | %27
!<(! [^F^f]/c/d/[Ff]/- [Ff]/[cd]/[Ff]!<)! | [GBdg]2!>(! ([df_a]/B/d/f/)!>)! |!mf! [GBeg]2 [EGBe]2 | %30
!<(! [DFBd]3 [FBdf]!<)! |!<(! [cec'][=Bd=b]/[cec']/- [cec']/[Aea]/!<)![Fef] | %32
!<(! [dfd'][^c=e^c']/[dfd']/- [dfd']/[dfd']/!<)![fbf'] | %33
!f! [ff']/[_e_e']/[dd']/[ee']/- [ee']/[ff']/[ee'] | [ee']/[dd']/[^c^c']/[dd']/- [dd']/[ee']/[dd'] | %35
 [dfd']/[cec']/[=Bd=b]/[cec']/- [cec']/[ee']/[ff'] |1 [Bdb]2-!>(! [Bdb]/(B/d/f/)!>)! :|2 %37
 [Bdb]2- [Bdb][FBdf] |:[K:Eb]!p! [EGBe]2 [Gceg]2 | [Gg]/[Ff]/[Aa]/[cc']/- [cc']/[Bb]/[Aa] | %40
 [Gg]/[Ff]/[Aa]/[cc']/- [cc']/[Bb]/[Aa] | [Geg]/[ege']/[cgc']/[Begb]/- [Begb]/[GBeg]/[FBdf] | %42
 [EGBe]2 [Gceg]2 |!<(! [GBdg]/[ee']/[dd']/[Bb]/- [Bb]/[=A=a]/!<)![GBdg] | %44
!<(! [^Fcd^f]/[ee']/[dd']/[cc']/- [cc']/[Bb]/!<)![=Acd=a] | [GBdg]3!>(! [=FBd=f]!>)! | %46
!p! [EGBe]2 [Gceg]2 | [Gg]/[Ff]/[Aa]/[cc']/- [cc']/[Bb]/[Aa] | %48
 [Gg]/[Ff]/[Aa]/[cc']/- [cc']/[Bb]/[Aa] | %49
 [Geg]/[Afa]/[=A^f=a]/[Bgb]/-!<(! [Bgb]/[Bgb]/[=B=fg=b]!<)! | %50
!<(! [cc']/[=B=b]/[cc']/[_d_d']/- [dd']/[cc']/!<)![cc'] | %51
!mf! [cc']/[=B=b]/[cc']/[_d_d']/- [dd']/[cc']/[cc'] | [cegc']/b/g/B/- B/g/[Adf] |1 %53
 [GBe]3 [FBdf] :|2 [GBe]2 [Bb][Bb] |:!f! b/d'/d/a/ c'/cd/ | (a/B/c/d/-) d/g/[Af] | %57
 ([Gf]/e/G/[GB]/-) [GB]/e/[^Fc] | [GB]2- ([GB]/B/e/g/) | %59
 ([df]/[eg]/[fa]/[ac']/-) ([ac']/[gb]/[fa]) | [df]2- [df]/(d/f/a/) | %61
 ([eg]/[fa]/[gb]/[ge']/-) [ge']/(c'/b/e/) | [eg]2 [Bb][Bb] | b/d'/d/a/ c'/cd/ | %64
 (a/B/c/d/-) d/g/[Af] | ([Gf]/e/G/[GB]/-) [GB]/(e/c'/b/) | [eg]2- [eg]/(e/g/b/) | %67
 ([Bb]/[Aa]/[Gg]/)[Aa]/- ([Aa]/[Bb]/[Aa]) | ([Aa]/[Gg]/[^F^f]/)[Gg]/- ([Gg]/[Aa]/[Gg]) | %69
 ([GBg]/[FAf]/[=EG=e]/)[FAf]/- ([FAf]/[Aa]/[Bb]) |1 [EGe]2 [Bb][Bb] :|2 [EGe]2 [ege'] z |] %72
V:2
"^l.h."[I:staff -1] F/=E/F/B,/- B,/D/_E/F/ | G/^F/G/C/- C/E/=F/G/ | %2
 (A/^G/A)[I:staff +1] !>![G,,G,]!>![_G,,_G,] | !>![F,,F,]2 !>![F,,F,]2 |: C,[F,A,E] F,,[F,A,E] | %5
 C,[F,A,E] [F,,F,][E,,E,] | [D,,D,][F,B,D] F,,[F,B,D] | [B,,,B,,][F,B,D] [D,,D,][F,_A,B,D] | %8
 z [G,B,E]- [G,B,E]2 | [D,,D,][F,B,D] [G,,G,][G,B,D] | [C,,C,][B,C=E] [=E,,=E,][B,CE] | %11
 [F,,F,]{/=B,,}C,F,, z | C,[F,A,_E] F,,[F,A,E] | C,[F,A,E] [F,,F,][E,,E,] | %14
 [D,,D,][F,B,D] F,,[F,B,D] | [B,,,B,,][F,B,D] [D,,D,][F,_A,B,D] | %16
 [E,,E,][G,B,E] [=E,,=E,][G,B,^C] | [F,,F,][F,B,D] [_G,,_G,][G,B,^C] | %18
 [F,,F,][F,B,D] [=G,,=G,][F,,F,] |1 [B,,B,]F,B,, z :|2 [B,,B,]F,B,, z |: %21
 (E,/B,,/C,/D,/ E,/F,/G,/A,/) | (B,/A,/B,/C/ B,/F,/D,/B,,/) | F,,[F,A,E] A,,[F,A,E] | %24
 B,,[F,B,D] D,[F,B,D] | (E,/B,,/C,/D,/ E,/F,/G,/A,/) | (B,/A,/B,/A,/ G,/^F,/G,/D,/) | %27
 A,[CD] D,[CD] | (G,/B,/A,/G,/) F,B,, | (E,/B,,/C,/D,/ E,/F,/G,/A,/) | %30
 (B,/A,/B,/C/ B,/F,/D,/B,,/) | F,,[F,A,E] A,,[F,A,E] | B,,[F,B,D] [B,,B,][_A,,_A,] | %33
 [G,,G,][G,B,E] [_G,,_G,][_G,B,E] | [F,,F,][F,B,D] [D,,D,][F,B,D] | F,,[F,A,E] F,,[F,A,E] |1 %36
 [B,,B,]F,D,B,, :|2 [B,,B,]F,B,,[_A,,_A,] |: %38
[K:Eb] [G,,G,]/[F,,F,]/[E,,E,]/[D,,D,]/ [C,,C,][B,,,B,,] | [A,,,A,,][F,A,C] [A,,,A,,][F,A,C] | %40
 [B,,,B,,][F,A,D] [B,,,B,,][A,B,D] | [E,,E,][G,B,E] [B,,B,][A,,A,] | %42
 [G,,G,]/[F,,F,]/[E,,E,]/[D,,D,]/ [C,,C,][G,CE] | [D,,D,][G,B,D] [D,,D,][G,B,D] | %44
 [D,,D,][^F,CD] [D,,D,][F,CD] | [G,,G,][D,D]/[C,C]/ [B,,B,][_A,,_A,] | %46
 [G,,G,]/[F,,F,]/[E,,E,]/[D,,D,]/ [C,,C,][B,,,B,,] | [A,,,A,,][F,A,C] [A,,,A,,][F,A,C] | %48
 [B,,,B,,][F,A,D] [B,,,B,,][A,B,D] | [E,,E,][G,B,E] [E,,E,][D,,D,] | %50
 [C,,C,][B,C=E] [=E,,=E,][B,CE] | [F,,F,][A,CF] [A,,A,][=A,,=A,] | %52
 [B,,B,][G,B,E] [B,,,B,,][A,B,D] |1 [E,,E,]!>(![C,C][B,,B,][A,,A,]!>)! :|2 %54
 [E,,E,][G,B,E][G,,G,][=E,,=E,] |: [F,,F,][A,B,D] [B,,,B,,][A,B,D] | %56
 [F,,F,][A,B,D] [B,,,B,,][A,B,D] | [E,,E,][G,B,E] [E,,E,][^F,=A,CE] | %58
 [E,,E,][G,B,E] [B,,,B,,][G,B,E] | [B,,,B,,][A,B,D] [D,,D,][A,B,D] | %60
 [B,,,B,,][A,B,D] [F,,F,][A,B,D] | [E,,E,][G,B,E] [B,,,B,,][G,B,E] | %62
 [E,,E,][G,B,E] [G,,G,][=E,,=E,] | [F,,F,][A,B,D] [B,,,B,,][A,B,D] | %64
 [F,,F,][A,B,D] [B,,,B,,][A,B,D] | [E,,E,][G,B,E] [B,,,B,,][G,B,E] | [E,,E,][G,B,E] [E,E][_D,_D] | %67
 [C,C][A,CE] [_C,_C][A,_CE] | [B,,B,][G,B,E] [G,,G,][G,B,E] | [B,,,B,,][A,B,D] [B,,,B,,][A,B,D] |1 %70
 [E,,E,][G,B,][G,,G,][=E,,=E,] :|2 [E,,E,]B,,E,, z |] %72
V:3
 x4 | x4 | x4 | x4 |: A4 | A4 | F4 | [Bd]2- [Bd] z | x4 | x4 | x4 | x4 | A4 | A4 | F4 | %15
 [Bd]2- [Bd] z | x4 | x4 | x4 |1 x4 :|2 x4 |: x4 | x4 | x4 | x4 | x4 | x4 | x4 | x2 B[_AB] | x4 | %30
 x4 | x4 | x4 | b4 | b4 | x4 |1 x4 :|2 x4 |:[K:Eb] x4 | c4 | d4 | x4 | x4 | x4 | x4 | x4 | x4 | %47
 c4 | d4 | x4 | [=eg]4 | [fa]3 [e^f] | x4 |1 x4 :|2 x4 |: x4 | x4 | x4 | x4 | x4 | x4 | x4 | x4 | %63
 x4 | x4 | x4 | x4 | e4 | e4 | x4 |1 x4 :|2 x4 |] %72
V:4
 x4 | x4 | x4 | x4 |: x4 | x4 | x4 | x4 | [E,,E,]2 [C,,C,][^C,,^C,] | x4 | x4 | x4 | x4 | x4 | x4 | %15
 x4 | x4 | x4 | x4 |1 x4 :|2 x4 |: x4 | x4 | x4 | x4 | x4 | x4 | x4 | x4 | x4 | x4 | x4 | x4 | x4 | %34
 x4 | x4 |1 x4 :|2 x4 |:[K:Eb] x4 | x4 | x4 | x4 | x4 | x4 | x4 | x4 | x4 | x4 | x4 | x4 | x4 | %51
 x4 | x4 |1 x4 :|2 x4 |: x4 | x4 | x4 | x4 | x4 | x4 | x4 | x4 | x4 | x4 | x4 | x4 | x4 | x4 | %69
 x4 |1 x4 :|2 x4 |] %72

